X: 473
T: Susu Mile
O: Croatia
M: 2/4
L: 1/8
Q: 1/4 = 240
K: F#m
%%MIDI program 24
|:aaaa|a2g2 |g2f2|f2g2|aaaa|a2g2|g2f2 |f2g2 :|
|:g2a2|b2c'2|b2a2|g2f2|g2a2|g2f2|e2f2-|f2z2 :|
K:Bm
|:dddd|d2c2 |c2B2|B2c2|dddd|d2c2|c2B2 |B2c2 :|
|:c2d2|e2f2 |e2d2|c2B2|c2d2|c2B2|A2B2-|B2z2 :|



